pro/src/icons/full-stock.svg

<svg width="48" height="48" viewBox="0 0 48 48" fill="none" xmlns="http://www.w3.org/2000/svg">
<path id="icon" fill-rule="evenodd" clip-rule="evenodd" d="M11.5708 7.50066L15.5379 6.92669C16.0086 6.85859 16.4507 7.14046 16.7019 7.5443C17.49 8.81115 18.9771 9.56072 20.5482 9.3334C22.1193 9.10609 23.333 7.96576 23.7297 6.5275C23.8561 6.06902 24.2002 5.67339 24.6709 5.60529L28.6381 5.0313C30.2779 4.79406 31.7995 5.93103 32.0368 7.57081L32.621 11.6091C31.4096 11.6965 30.3714 12.5359 30.042 13.7204C30.0377 13.7305 30.0317 13.7441 30.0238 13.7605C29.9841 13.8436 29.9148 13.9636 29.8127 14.0804C29.6654 14.2487 29.3633 14.5372 28.5605 14.5493C27.8145 14.5605 27.553 14.2994 27.416 14.1399C27.316 14.0235 27.245 13.8989 27.2021 13.8064C27.1916 13.7838 27.1839 13.7656 27.1789 13.7531C26.8383 12.4839 25.688 11.6016 24.3739 11.6016H20.2181C17.105 11.6016 14.6056 14.1335 14.6056 17.2266V36.5769C13.4709 36.2828 12.5666 35.3342 12.3883 34.1014L9.0313 10.8993C8.79405 9.25954 9.93103 7.73791 11.5708 7.50066ZM25.526 16.4885C24.58 15.6435 24.3003 14.6016 24.3003 14.6016H20.218C18.7751 14.6016 17.6055 15.7768 17.6055 17.2266V39.9766C17.6055 41.4263 18.7751 42.6016 20.218 42.6016H24.3003C24.7145 42.6016 25.0612 42.3028 25.2209 41.9188C25.7741 40.5888 27.0811 39.6542 28.6055 39.6542C30.1298 39.6542 31.4369 40.5888 31.9901 41.9188C32.1498 42.3028 32.4964 42.6016 32.9106 42.6016H36.993C38.4358 42.6016 39.6055 41.4263 39.6055 39.9766V17.2266C39.6055 15.7768 38.4358 14.6016 36.993 14.6016H32.9106C32.9106 14.6016 32.1055 17.4963 28.6055 17.5489C28.26 17.5541 27.9408 17.5296 27.646 17.4811C27.4852 17.4547 27.3316 17.4211 27.1851 17.3814C26.493 17.1937 25.9565 16.8684 25.5446 16.5049C25.5384 16.4994 25.5322 16.494 25.526 16.4885Z" fill="currentColor"/>
</svg>

<svg xmlns="http://www.w3.org/2000/svg" width="48" height="48" fill="none"><path id="icon" fill="currentColor" fill-rule="evenodd" d="m11.57 7.5 3.968-.573c.47-.068.913.213 1.164.617a3.875 3.875 0 0 0 7.028-1.016c.126-.459.47-.855.94-.923l3.968-.574a3 3 0 0 1 3.399 2.54l.584 4.038a2.895 2.895 0 0 0-2.579 2.111l-.018.04c-.04.084-.11.204-.211.32-.148.169-.45.457-1.252.47-.747.01-1.008-.25-1.145-.41a1.5 1.5 0 0 1-.237-.387 2.904 2.904 0 0 0-2.805-2.151h-4.156c-3.113 0-5.612 2.531-5.612 5.625v19.35a3 3 0 0 1-2.218-2.476L9.031 10.9a3 3 0 0 1 2.54-3.398m13.956 8.988c-.946-.844-1.226-1.886-1.226-1.886h-4.082a2.62 2.62 0 0 0-2.613 2.625v22.75c0 1.45 1.17 2.625 2.613 2.625H24.3c.415 0 .761-.3.92-.683a3.67 3.67 0 0 1 3.386-2.265c1.524 0 2.83.935 3.384 2.265.16.384.506.683.92.683h4.083a2.62 2.62 0 0 0 2.612-2.625v-22.75c0-1.45-1.17-2.625-2.612-2.625h-4.082s-.806 2.894-4.306 2.947a5.4 5.4 0 0 1-.959-.068 5 5 0 0 1-.46-.1 4.05 4.05 0 0 1-1.641-.876z" clip-rule="evenodd"/></svg>
